tn/credit-card.svg

<svg viewBox="0 0 15 15" fill="none" xmlns="http://www.w3.org/2000/svg" height="1em" width="1em">
  <path d="M13.5 2C14.3284 2 15 2.67157 15 3.5V5H0V3.5C0 2.67157 0.671573 2 1.5 2H13.5Z" fill="black"/>
  <path fill-rule="evenodd" clip-rule="evenodd" d="M0 6V11.5C0 12.3284 0.671573 13 1.5 13L13.5 13C14.3284 13 15 12.3284 15 11.5V6H0ZM2 10H8V9H2V10ZM13 10H10V9H13V10Z" fill="black"/>
</svg>

<svg viewBox="0 0 15 15" fill="none" xmlns="http://www.w3.org/2000/svg" height="1em" width="1em">
  <path d="M13.5 2A1.5 1.5 0 0 1 15 3.5V5H0V3.5A1.5 1.5 0 0 1 1.5 2h12Z" fill="#000"/>
  <path fill-rule="evenodd" clip-rule="evenodd" d="M0 6v5.5A1.5 1.5 0 0 0 1.5 13h12a1.5 1.5 0 0 0 1.5-1.5V6H0Zm2 4h6V9H2v1Zm11 0h-3V9h3v1Z" fill="#000"/>
</svg>
